static/nodeIcons/cmd/history.svg

<svg xmlns="http://www.w3.org/2000/svg" viewBox="0 0 59.99 59.99"><path d="M29.985 51c-11.579 0-21-9.421-21-21s9.421-21 21-21 21 9.421 21 21-9.42 21-21 21" fill="#556180"/><path d="M29.985 15a1 1 0 0 1-1-1v-2a1 1 0 1 1 2 0v2a1 1 0 0 1-1 1M29.985 49a1 1 0 0 1-1-1v-2a1 1 0 1 1 2 0v2a1 1 0 0 1-1 1M47.985 31h-2a1 1 0 1 1 0-2h2a1 1 0 1 1 0 2M13.985 31h-2a1 1 0 1 1 0-2h2a1 1 0 1 1 0 2M29.985 33c-2.206 0-4-1.794-4-4s1.794-4 4-4 4 1.794 4 4-1.793 4-4 4m0-6c-1.103 0-2 .897-2 2s.897 2 2 2 2-.897 2-2-.897-2-2-2" fill="#fff"/><path d="M29.985 27a1 1 0 0 1-1-1v-6a1 1 0 1 1 2 0v6a1 1 0 0 1-1 1M18.985 41a.999.999 0 0 1-.707-1.707l8.879-8.879a.999.999 0 1 1 1.414 1.414l-8.879 8.879a.996.996 0 0 1-.707.293" fill="#fff"/><path d="M58.985 31a1 1 0 0 1-1-1c0-15.439-12.561-28-28-28-7.217 0-14.075 2.75-19.31 7.742a1.001 1.001 0 0 1-1.38-1.447C14.904 2.946 22.253 0 29.985 0c16.542 0 30 13.458 30 30a1 1 0 0 1-1 1" fill="#74be86"/><path d="M17.985 10h-9V1a1 1 0 1 1 2 0v7h7a1 1 0 1 1 0 2M29.546 59.01c-.01-.55.43-1.01.98-1.02.55-.011 1.01.43 1.02.98a.998.998 0 0 1-.98 1.02h-.02a.997.997 0 0 1-1-.98m-2.081.88v.009a1 1 0 0 1-.91-1.089c.04-.55.53-.96 1.08-.911a1.002 1.002 0 1 1-.09 2c-.02 0-.05 0-.08-.009m5.081-.991a.997.997 0 0 1 .87-1.109.986.986 0 0 1 1.11.87c.07.55-.32 1.05-.87 1.12v-.01c-.04.01-.08.01-.12.01a.994.994 0 0 1-.99-.881m-8.15.58c-.55-.109-.9-.629-.8-1.169a1 1 0 0 1 1.17-.8c.54.099.9.63.8 1.17-.1.48-.52.81-.99.81-.061 0-.12 0-.18-.011m11.119-.989a.992.992 0 0 1 .75-1.2c.54-.12 1.07.21 1.2.75.12.54-.22 1.08-.75 1.2-.08.02-.15.02-.23.02-.45 0-.87-.31-.97-.77m-14.139.25c-.53-.16-.82-.72-.67-1.25.16-.52.72-.82 1.25-.66.53.149.83.71.67 1.239a1.005 1.005 0 0 1-1.25.671m17.049-.97c-.18-.53.1-1.1.62-1.27a.993.993 0 0 1 1.27.62c.18.52-.1 1.09-.62 1.27-.11.03-.22.049-.33.049a.998.998 0 0 1-.94-.669m-19.969-.07a.995.995 0 0 1-.53-1.31c.21-.51.79-.75 1.3-.54.51.21.75.799.54 1.31-.16.38-.53.61-.92.61-.131 0-.26-.02-.39-.07m22.789-.96a.986.986 0 0 1 .49-1.32.982.982 0 0 1 1.32.479.993.993 0 0 1-.9 1.42.995.995 0 0 1-.91-.579m-25.579-.39a.996.996 0 1 1 .95-1.75c.49.259.67.87.4 1.35a.987.987 0 0 1-.88.529c-.16 0-.32-.04-.47-.129m28.279-.92a.997.997 0 0 1 .34-1.37c.48-.28 1.09-.121 1.37.35a.995.995 0 0 1-.85 1.51.982.982 0 0 1-.86-.49m-30.93-.701a.997.997 0 0 1-.25-1.389.997.997 0 1 1 .82 1.559c-.2 0-.39-.049-.57-.17m33.48-.879c-.33-.44-.24-1.07.2-1.4a.996.996 0 0 1 1.4.21.996.996 0 0 1-.8 1.59.96.96 0 0 1-.8-.4m-35.94-1.01a1 1 0 1 1 .65.24c-.229 0-.46-.08-.65-.24m38.31-.82a1 1 0 0 1 .06-1.42v.009a.988.988 0 0 1 1.41.061.997.997 0 0 1-.73 1.67 1.03 1.03 0 0 1-.74-.32m-40.56-1.31a.996.996 0 1 1 1.44-1.38.987.987 0 0 1-.03 1.41c-.19.19-.44.28-.69.28a.97.97 0 0 1-.72-.31m42.73-.76c-.41-.37-.45-1-.08-1.41.36-.42.99-.45 1.41-.09.41.369.45 1 .08 1.409a.975.975 0 0 1-.75.341.993.993 0 0 1-.66-.25m-44.76-1.591a.992.992 0 0 1 .18-1.399.992.992 0 0 1 1.4.18 1 1 0 0 1-.17 1.4c-.19.14-.4.21-.62.21a.998.998 0 0 1-.79-.391m46.71-.689c-.45-.32-.55-.95-.23-1.4.32-.44.95-.55 1.4-.23a1.006 1.006 0 0 1-.59 1.819.982.982 0 0 1-.58-.189m-48.48-1.851a1.005 1.005 0 0 1 .32-1.38 1.003 1.003 0 0 1 1.06 1.701c-.17.1-.35.15-.53.15-.33 0-.66-.17-.85-.471m50.19-.619a.988.988 0 0 1-.37-1.36h-.01c.28-.481.89-.651 1.37-.38a1.002 1.002 0 0 1-.99 1.74m-51.69-2.091a1.003 1.003 0 0 1 1.8-.88 1.004 1.004 0 0 1-.9 1.441c-.37 0-.73-.21-.9-.561m53.13-.54a.988.988 0 0 1-.51-1.319c.22-.5.81-.73 1.32-.51.5.22.73.81.51 1.32-.17.37-.53.6-.92.6-.13 0-.27-.03-.4-.091M1.796 40.25a.994.994 0 1 1 1.87-.681.993.993 0 0 1-.94 1.341.984.984 0 0 1-.93-.66m55.5-.44c-.52-.17-.81-.741-.64-1.26a.989.989 0 0 1 1.25-.651 1 1 0 0 1 .65 1.261c-.14.42-.53.69-.95.69-.101 0-.21-.01-.31-.04M.885 37.29a.989.989 0 0 1 .72-1.21c.54-.141 1.08.19 1.22.72.13.54-.2 1.08-.73 1.22a1.003 1.003 0 0 1-1.21-.73m57.281-.36a.988.988 0 0 1-.77-1.18.988.988 0 0 1 1.18-.771.99.99 0 0 1 .77 1.181c-.09.47-.51.79-.97.79-.071 0-.141 0-.21-.02M.285 34.24c-.08-.54.3-1.051.85-1.131.54-.079 1.05.301 1.13.851.08.55-.3 1.05-.85 1.13-.05.01-.09.01-.14.01-.49 0-.919-.36-.99-.86m58.441-.25a1 1 0 1 1 .21-1.99c.55.05.95.55.89 1.09-.05.519-.49.9-.99.9h-.11zM.005 31.16a.998.998 0 0 1 .96-1.04c.55-.02 1.02.41 1.04.96.02.55-.41 1.02-.96 1.04h-.04a1.01 1.01 0 0 1-1-.96M57.985 30c0-.55.45-1 1-1s1 .45 1 1-.45 1-1 1c-.549 0-1-.45-1-1" fill="#74be86"/></svg>

<?xml version="1.0" encoding="iso-8859-1"?>
<!-- Generator: Adobe Illustrator 19.0.0, SVG Export Plug-In . SVG Version: 6.00 Build 0)  -->
<svg version="1.1" id="Capa_1" xmlns="http://www.w3.org/2000/svg" xmlns:xlink="http://www.w3.org/1999/xlink" x="0px" y="0px"
	 viewBox="0 0 59.99 59.99" style="enable-background:new 0 0 59.99 59.99;" xml:space="preserve">
<g id="XMLID_6_">
	<path id="XMLID_148_" style="fill:#556180;" d="M29.985,51c-11.579,0-21-9.421-21-21s9.421-21,21-21s21,9.421,21,21
		S41.565,51,29.985,51"/>
	<path id="XMLID_147_" style="fill:#FFFFFF;" d="M29.985,15c-0.552,0-1-0.447-1-1v-2c0-0.553,0.448-1,1-1c0.552,0,1,0.447,1,1v2
		C30.985,14.553,30.537,15,29.985,15"/>
	<path id="XMLID_146_" style="fill:#FFFFFF;" d="M29.985,49c-0.552,0-1-0.447-1-1v-2c0-0.553,0.448-1,1-1c0.552,0,1,0.447,1,1v2
		C30.985,48.553,30.537,49,29.985,49"/>
	<path id="XMLID_145_" style="fill:#FFFFFF;" d="M47.985,31h-2c-0.552,0-1-0.447-1-1c0-0.553,0.448-1,1-1h2c0.552,0,1,0.447,1,1
		C48.985,30.553,48.537,31,47.985,31"/>
	<path id="XMLID_144_" style="fill:#FFFFFF;" d="M13.985,31h-2c-0.552,0-1-0.447-1-1c0-0.553,0.448-1,1-1h2c0.552,0,1,0.447,1,1
		C14.985,30.553,14.537,31,13.985,31"/>
	<path id="XMLID_141_" style="fill:#FFFFFF;" d="M29.985,33c-2.206,0-4-1.794-4-4s1.794-4,4-4c2.206,0,4,1.794,4,4
		S32.192,33,29.985,33 M29.985,27c-1.103,0-2,0.897-2,2s0.897,2,2,2c1.103,0,2-0.897,2-2S31.088,27,29.985,27"/>
	<path id="XMLID_140_" style="fill:#FFFFFF;" d="M29.985,27c-0.552,0-1-0.447-1-1v-6c0-0.553,0.448-1,1-1c0.552,0,1,0.447,1,1v6
		C30.985,26.553,30.537,27,29.985,27"/>
	<path id="XMLID_139_" style="fill:#FFFFFF;" d="M18.985,41c-0.256,0-0.512-0.098-0.707-0.293c-0.391-0.391-0.391-1.023,0-1.414
		l8.879-8.879c0.391-0.391,1.023-0.391,1.414,0c0.391,0.391,0.391,1.023,0,1.414l-8.879,8.879C19.498,40.902,19.241,41,18.985,41"/>
	<path id="XMLID_138_" style="fill:#74BE86;" d="M58.985,31c-0.552,0-1-0.447-1-1c0-15.439-12.561-28-28-28
		c-7.217,0-14.075,2.75-19.31,7.742c-0.399,0.381-1.033,0.366-1.414-0.033c-0.381-0.4-0.366-1.033,0.034-1.414
		C14.904,2.946,22.253,0,29.985,0c16.542,0,30,13.458,30,30C59.985,30.553,59.537,31,58.985,31"/>
	<path id="XMLID_137_" style="fill:#74BE86;" d="M17.985,10h-9V1c0-0.553,0.448-1,1-1c0.552,0,1,0.447,1,1v7h7c0.552,0,1,0.447,1,1
		C18.985,9.553,18.537,10,17.985,10"/>
	<path id="XMLID_105_" style="fill:#74BE86;" d="M29.546,59.01c-0.01-0.55,0.43-1.01,0.98-1.02c0.55-0.011,1.01,0.43,1.02,0.98
		c0.01,0.56-0.43,1.009-0.98,1.02h-0.02C30.005,59.99,29.555,59.56,29.546,59.01 M27.465,59.89v0.009
		c-0.55-0.049-0.96-0.529-0.91-1.089c0.04-0.55,0.53-0.96,1.08-0.911c0.55,0.051,0.95,0.531,0.91,1.08c-0.04,0.521-0.48,0.92-1,0.92
		C27.525,59.899,27.495,59.899,27.465,59.89 M32.546,58.899c-0.07-0.54,0.32-1.04,0.87-1.109c0.55-0.07,1.05,0.319,1.11,0.87
		c0.07,0.55-0.32,1.05-0.87,1.12v-0.01c-0.04,0.01-0.08,0.01-0.12,0.01C33.035,59.78,32.606,59.41,32.546,58.899 M24.396,59.479
		c-0.55-0.109-0.9-0.629-0.8-1.169c0.1-0.55,0.63-0.9,1.17-0.8c0.54,0.099,0.9,0.63,0.8,1.17c-0.1,0.48-0.52,0.81-0.99,0.81
		C24.515,59.49,24.456,59.49,24.396,59.479 M35.515,58.49c-0.13-0.54,0.21-1.08,0.75-1.2c0.54-0.12,1.07,0.21,1.2,0.75
		c0.12,0.54-0.22,1.08-0.75,1.2c-0.08,0.02-0.15,0.02-0.23,0.02C36.035,59.26,35.615,58.95,35.515,58.49 M21.376,58.74
		c-0.53-0.16-0.82-0.72-0.67-1.25c0.16-0.52,0.72-0.82,1.25-0.66c0.53,0.149,0.83,0.71,0.67,1.239
		c-0.13,0.431-0.53,0.711-0.96,0.711C21.575,58.78,21.476,58.77,21.376,58.74 M38.425,57.77c-0.18-0.53,0.1-1.1,0.62-1.27
		c0.52-0.181,1.09,0.09,1.27,0.62c0.18,0.52-0.1,1.09-0.62,1.27c-0.11,0.03-0.22,0.049-0.33,0.049
		C38.956,58.439,38.566,58.18,38.425,57.77 M18.456,57.7c-0.51-0.221-0.75-0.801-0.53-1.31c0.21-0.51,0.79-0.75,1.3-0.54
		c0.51,0.21,0.75,0.799,0.54,1.31c-0.16,0.38-0.53,0.61-0.92,0.61C18.715,57.77,18.586,57.75,18.456,57.7 M41.245,56.74
		c-0.23-0.5-0.02-1.091,0.49-1.32c0.5-0.24,1.09-0.021,1.32,0.479c0.24,0.5,0.02,1.101-0.48,1.33c-0.14,0.061-0.28,0.09-0.42,0.09
		C41.775,57.319,41.416,57.109,41.245,56.74 M15.666,56.35c-0.49-0.26-0.67-0.871-0.41-1.35c0.27-0.49,0.88-0.67,1.36-0.4
		c0.49,0.259,0.67,0.87,0.4,1.35c-0.18,0.34-0.52,0.529-0.88,0.529C15.976,56.479,15.816,56.439,15.666,56.35 M43.945,55.43
		c-0.29-0.47-0.13-1.08,0.34-1.37c0.48-0.28,1.09-0.121,1.37,0.35c0.29,0.47,0.13,1.09-0.34,1.37c-0.16,0.1-0.34,0.14-0.51,0.14
		C44.465,55.92,44.126,55.75,43.945,55.43 M13.015,54.729c-0.45-0.319-0.57-0.939-0.25-1.389c0.31-0.46,0.93-0.57,1.39-0.26
		c0.45,0.31,0.57,0.94,0.25,1.39c-0.19,0.28-0.5,0.429-0.82,0.429C13.385,54.899,13.195,54.85,13.015,54.729 M46.495,53.85
		c-0.33-0.44-0.24-1.07,0.2-1.4c0.44-0.33,1.07-0.24,1.4,0.21c0.33,0.44,0.24,1.069-0.21,1.4c-0.17,0.129-0.38,0.19-0.59,0.19
		C46.985,54.25,46.686,54.12,46.495,53.85 M10.555,52.84L10.555,52.84c-0.42-0.361-0.47-0.99-0.11-1.41
		c0.36-0.42,0.99-0.47,1.41-0.111c0.42,0.361,0.47,0.991,0.11,1.41c-0.2,0.231-0.48,0.351-0.76,0.351
		C10.976,53.08,10.745,53,10.555,52.84 M48.865,52.02c-0.38-0.411-0.35-1.041,0.06-1.42v0.009c0.4-0.38,1.04-0.349,1.41,0.061
		c0.37,0.399,0.35,1.03-0.06,1.41c-0.19,0.17-0.43,0.26-0.67,0.26C49.336,52.34,49.066,52.229,48.865,52.02 M8.305,50.71
		c-0.38-0.4-0.37-1.03,0.03-1.41c0.4-0.38,1.03-0.37,1.41,0.03c0.39,0.399,0.37,1.029-0.03,1.41c-0.19,0.19-0.44,0.28-0.69,0.28
		C8.765,51.02,8.495,50.92,8.305,50.71 M51.035,49.95c-0.41-0.37-0.45-1-0.08-1.41c0.36-0.42,0.99-0.45,1.41-0.09
		c0.41,0.369,0.45,1,0.08,1.409c-0.2,0.231-0.47,0.341-0.75,0.341C51.465,50.2,51.226,50.12,51.035,49.95 M6.275,48.359
		c-0.34-0.429-0.26-1.059,0.18-1.399c0.44-0.34,1.06-0.26,1.4,0.18c0.34,0.429,0.26,1.06-0.17,1.4c-0.19,0.14-0.4,0.21-0.62,0.21
		C6.775,48.75,6.476,48.62,6.275,48.359 M52.985,47.67c-0.45-0.32-0.55-0.95-0.23-1.4c0.32-0.44,0.95-0.55,1.4-0.23
		c0.45,0.33,0.55,0.95,0.23,1.399c-0.2,0.271-0.5,0.42-0.82,0.42C53.365,47.859,53.166,47.8,52.985,47.67 M4.505,45.819
		c-0.29-0.469-0.15-1.079,0.32-1.38c0.47-0.29,1.09-0.149,1.38,0.321c0.29,0.469,0.15,1.09-0.32,1.38c-0.17,0.1-0.35,0.15-0.53,0.15
		C5.025,46.29,4.695,46.12,4.505,45.819 M54.695,45.2c-0.48-0.27-0.65-0.881-0.37-1.36h-0.01c0.28-0.481,0.89-0.651,1.37-0.38
		c0.48,0.28,0.65,0.89,0.37,1.37c-0.18,0.319-0.52,0.5-0.87,0.5C55.015,45.33,54.845,45.29,54.695,45.2 M3.005,43.109L3.005,43.109
		c-0.24-0.5-0.04-1.099,0.46-1.339c0.5-0.24,1.09-0.041,1.34,0.459c0.24,0.5,0.03,1.101-0.47,1.34
		c-0.14,0.071-0.29,0.101-0.43,0.101C3.535,43.67,3.175,43.46,3.005,43.109 M56.135,42.569c-0.51-0.219-0.74-0.81-0.51-1.319
		c0.22-0.5,0.81-0.73,1.32-0.51c0.5,0.22,0.73,0.81,0.51,1.32c-0.17,0.37-0.53,0.6-0.92,0.6
		C56.405,42.66,56.265,42.63,56.135,42.569 M1.796,40.25c-0.19-0.521,0.07-1.09,0.59-1.28c0.52-0.19,1.1,0.08,1.28,0.599
		c0.19,0.521-0.07,1.091-0.59,1.281c-0.12,0.04-0.23,0.06-0.35,0.06C2.325,40.91,1.936,40.66,1.796,40.25 M57.296,39.81
		c-0.52-0.17-0.81-0.741-0.64-1.26c0.16-0.53,0.73-0.821,1.25-0.651c0.53,0.17,0.82,0.731,0.65,1.261
		c-0.14,0.42-0.53,0.69-0.95,0.69C57.505,39.85,57.396,39.84,57.296,39.81 M0.885,37.29c-0.14-0.54,0.19-1.08,0.72-1.21
		c0.54-0.141,1.08,0.19,1.22,0.72c0.13,0.54-0.2,1.08-0.73,1.22c-0.08,0.02-0.16,0.03-0.24,0.03
		C1.405,38.05,0.995,37.74,0.885,37.29 M58.166,36.93c-0.54-0.111-0.89-0.64-0.77-1.18c0.11-0.54,0.64-0.891,1.18-0.771
		c0.54,0.111,0.89,0.641,0.77,1.181c-0.09,0.47-0.51,0.79-0.97,0.79C58.305,36.95,58.235,36.95,58.166,36.93 M0.285,34.24
		c-0.08-0.54,0.3-1.051,0.85-1.131c0.54-0.079,1.05,0.301,1.13,0.851c0.08,0.55-0.3,1.05-0.85,1.13c-0.05,0.01-0.09,0.01-0.14,0.01
		C0.785,35.1,0.356,34.74,0.285,34.24 M58.726,33.99c-0.55-0.06-0.95-0.551-0.89-1.1c0.06-0.55,0.55-0.951,1.1-0.89
		c0.55,0.05,0.95,0.55,0.89,1.09c-0.05,0.519-0.49,0.9-0.99,0.9H58.726z M0.005,31.16c-0.02-0.56,0.41-1.02,0.96-1.04
		c0.55-0.02,1.02,0.41,1.04,0.96c0.02,0.55-0.41,1.02-0.96,1.04h-0.04C0.476,32.12,0.025,31.689,0.005,31.16 M57.985,30L57.985,30
		c0-0.55,0.45-1,1-1c0.55,0,1,0.45,1,1s-0.45,1-1,1C58.436,31,57.985,30.55,57.985,30"/>
</g>
<g>
</g>
<g>
</g>
<g>
</g>
<g>
</g>
<g>
</g>
<g>
</g>
<g>
</g>
<g>
</g>
<g>
</g>
<g>
</g>
<g>
</g>
<g>
</g>
<g>
</g>
<g>
</g>
<g>
</g>
</svg>
